!!!COM: Bach, Johann Sebastian
!!!OTL: 217. Ach Gott, wie manches Herzeleid
!!!ONM: No. 217
!!!OCL: Erk
!!!SCA: BWV 153.9
!!!YOE: Riemenschneider, Albert
!!!OPR: 371 Harmonized Chorales and 69 Chorale Melodies with Figured Bass
!!!OPT: Bach Chorale Harmonizations
!!!ONB: From the end of Cantata 153
**harm	**root	**kern	**kern	**kern	**kern
!	!	!bass	!tenor	!alto	!sprno
*Iorgan	*Iorgan	*Iorgan	*Iorgan	*Iorgan	*Iorgan
*k[b-e-a-d-]	*k[b-e-a-d-]	*k[b-e-a-d-]	*k[b-e-a-d-]	*k[b-e-a-d-]	*k[b-e-a-d-]
*A-:	*A-:	*A-:	*A-:	*A-:	*A-:
*M3/4	*M3/4	*M3/4	*M3/4	*M3/4	*M3/4
*MM60	*MM60	*MM60	*MM60	*MM60	*MM60
=1-	=1-	=1-	=1-	=1-	=1-
I	4CC	4AA-	4E-	4c	4a-
Ib	4CC	4C	4A-	4e-	4a-
I	4CC	4AA-	4c	4e-	4a-
=2	=2	=2	=2	=2	=2
IV	4FF	2D-	4A-	4d-	4f
V7d	4GG	.	4B-	4e-	4g
Ib	4CC	4C	4c	4e-	4a-
=3	=3	=3	=3	=3	=3
Vb/V	2DD	2D	2B-	2f	4b-
.	.	.	.	.	4a-
V	4GG	4E-	4B-	4e-	4g
=4	=4	=4	=4	=4	=4
V/V;	2.DD;	2.BB-;	2.B-;	2.d;	2.f;
=5	=5	=5	=5	=5	=5
V/V	4DD	4BB-	4B-	4d	4f
V	4GG	4E-	4B-	4e-	4g
Ib	4CC	4C	4c	4e-	4a-
=6	=6	=6	=6	=6	=6
Vb	2GG	2GG	2B-	2e-	2b-
I	4CC	4AA-	4c	4e-	4a-
=7	=7	=7	=7	=7	=7
V	4GG	4E-	4B-	4e-	4g
V/V	2DD	2BB-	4.B-	4e-	2f
.	.	.	.	4d	.
.	.	.	8A-	.	.
=8	=8	=8	=8	=8	=8
V;	2.GG;	2.EE-;	2.G;	2.e-;	2.e-;
=9	=9	=9	=9	=9	=9
!!linebreak: 2
I	4CC	4A-	4A-	4e-	4cc
Vb/vi	4EE	4E	4G	4c	4cc
V/vi	4EE	4C	4c	4e	4cc
=10	=10	=10	=10	=10	=10
vi	4AA	2F	4c	4f	4a-
vii7d	4BB	.	4d-	4g	4b-
V7/ii	4AA	4FF	4e-	4a	4cc
=11	=11	=11	=11	=11	=11
ii	4DD	4BB-	4d-	4b-	4dd-
Ib	4CC	4C	4e-	2a-	2cc
IV7	4FF	4D-	4A-	.	.
=12	=12	=12	=12	=12	=12
V;	2.GG;	2.E-;	2.G;	2.e-;	2.b-;
=13	=13	=13	=13	=13	=13
Ib	4CC	4C	4A-	4e-	4a-
viib	4BB	4BB-	4D-	4g	4b-
I	4CC	4AA-	4E-	4a-	4cc
=14	=14	=14	=14	=14	=14
ii7b	4DD	4D-	4F	4a-	2b-
V	4GG	4E-	4G	4g	.
vi	4AA	4F	4A-	4c	4a-
=15	=15	=15	=15	=15	=15
V7b/V	4DD	4D	4B-	4f	4a-
V	2GG	4E-	2B-	2e-	2g
.	.	4EE-	.	.	.
=16	=16	=16	=16	=16	=16
I;	2.CC;	2.AA-;	2.c;	2.e-;	2.a-;
==	==	==	==	==	==
*-	*-	*-	*-	*-	*-
!!!CDT: 1685/3//-1750/7/28
!!!OCY: Deutschland
!!!AGN: chorale
!!!AST: Baroque
!!!AIN: vox
!!!YOY: 1941
!!!PPP: New York; London
!!!PPR: G. Schirmer
!!!ENC: David Huron
!!!EED: David Huron
!!!YEN: United States of America
!!!YER: 1992
!!!YEC: Copyright 1992 David Huron
!!!YEM: Rights to all derivative electronic formats reserved.
!!!YER: March 20, 1996
!!!AMT: simple quadruple
!!!EEV: 1.1
!!chor2scor: -l 2 -s 0.6 -o %b.pmx
